X:1
T:Dindirín
T:Dindirín
T:Fra Cancionero de Palacio (Spania, 16. årh.)
%%score [ 1 2 3 4 ]
L:1/8
M:3/4
K:G
V:1 treble nm="Soprano"
V:2 treble nm="Alto"
V:3 treble-8 nm="Tenor"
V:4 bass nm="Bass"
V:1
 G2 G2 G2 | F2 F2 G2 | A2 A2 G2 | F4 G2 | A2 F2 F2 | E6!fine! |][M:2/2] d2 d2 | B2 B2 B2 B2 | %8
w: Din- di- rín,|din- di- rín,|din- di- rín-|da- ña,|din- di- rin-|dín.|1.Yo me|le- ve~un bel ma-|
w: ||||||2.En- con-|tré le rui- se-|
w: ||||||3."Rui- se-|ñor, le rui- se-|
 A4 F2 F2 | G2 G2 F2 F2 | (G2 B2 A4) | G4 |[M:3/4] G4 G2 | G4 G2 | G4 G2 | !breath!G6 | F4 G2 | %17
w: tin, ma- ti-|ne- ta per la|pra- * *|ta;|En- con-|tré le|rui- se-|ñor|que can-|
w: ñor que can-|ta- ba so la|ra- * *|ma.|"Rui- se-|ñor, le|rui- se-|ñor,|fác- te-|
w: ñor, fac- te-|me~a- ques- ta~em- ba-|xa- * *|ta.|Y dí-|ga- lo~a|mon a-|mi,|que ju|
 A4 A2 | A4 G2 | F4 G2 | A2 F2 F2 | E6!D.C.! |] %22
w: ta- ba|so la|ra- ma.|Din- di- rin-|dín.|
w: me~a- ques-|ta~em- ba-|xa- ta."|Din- di- rin-|dín|
w: ya só|ma- ri-|ta- ta."|Din- di- rin-|dín.|
V:2
 E2 E2 E2 | D2 D2 E2 | F2 F2 E2 | ^D4 E2 | ^C2 ^D2 D2 | E6 |][M:2/2] E2 E2 | G2 G2 G2 G2 | %8
w: Din- di- rín,|din- di- rín,|din- di- rín-|da- ña,|din- di- rin-|dín.|1.Yo me|le- ve~un bel ma-|
w: ||||||2.En- con-|tré le rui- se-|
w: ||||||3."Rui- se-|ñor, le rui- se-|
 A4 A2 A2 | B2 B2 A2 A2 | (G3 E F4) | G4 |[M:3/4] E4 E2 | E4 E2 | E4 E2 | !breath!E6 | D4 E2 | %17
w: tin, ma- ti-|ne- ta per la|pra- * *|ta;|En- con-|tré le|rui- se-|ñor|que can-|
w: ñor que can-|ta- ba so la|ra- * *|ma.|"Rui- se-|ñor, le|rui- se-|ñor,|fác- te-|
w: ñor, fac- te-|me~a- ques- ta~em- ba-|xa- * *|ta.|Y dí-|ga- lo~a|mon a-|mi,|que ju|
 F4 F2 | F4 E2 | ^D4 E2 | ^C2 ^D2 D2 | E6 |] %22
w: ta- ba|so la|ra- ma.|Din- di- rin-|dín.|
w: me~a- ques-|ta~em- ba-|xa- ta."|Din- di- rin-|dín|
w: ya só|ma- ri-|ta- ta."|Din- di- rin-|dín.|
V:3
 B2 B2 B2 | B2 B2 B2 | d2 d2 B2 | B4 B2 | A2 B2 B2 | B6 |][M:2/2] B2 B2 | e2 e2 e2 e2 | e4 d2 d2 | %9
w: Din- di- rín,|din- di- rín,|din- di- rín-|da- ña,|din- di- rin-|dín.|1.Yo me|le- ve~un bel ma-|tin, ma- ti-|
w: ||||||2.En- con-|tré le rui- se-|ñor que can-|
w: ||||||3."Rui- se-|ñor, le rui- se-|ñor, fac- te-|
 d2 d2 d2 d2 | d8 | d4 |[M:3/4] c4 c2 | c4 c2 | c4 c2 | !breath!B6 | B4 B2 | d4 d2 | d4 B2 | %19
w: ne- ta per la|pra-|ta;|En- con-|tré le|rui- se-|ñor|que can-|ta- ba|so la|
w: ta- ba so la|ra-|ma.|"Rui- se-|ñor, le|rui- se-|ñor,|fác- te-|me~a- ques-|ta~em- ba-|
w: me~a- ques- ta~em- ba-|xa-|ta.|Y dí-|ga- lo~a|mon a-|mi,|que ju|ya só|ma- ri-|
 B4 B2 | A2 B2 B2 | B6 |] %22
w: ra- ma.|Din- di- rin-|dín.|
w: xa- ta."|Din- di- rin-|dín|
w: ta- ta."|Din- di- rin-|dín.|
V:4
 E,2 E,2 E,2 | B,,2 B,,2 E,2 | D,2 D,2 E,2 | B,,4 E,2 | F,2 B,,2 B,,2 | E,6 |][M:2/2] E,2 E,2 | %7
w: Din- di- rín,|din- di- rín,|din- di- rín-|da- ña,|din- di- rin-|dín.|1.Yo me|
w: ||||||2.En- con-|
w: ||||||3."Rui- se-|
 E,2 E,2 E,2 E,2 | A,4 D,2 D,2 | G,2 G,2 D,2 D,2 | (G,4 D,4) | G,4 |[M:3/4] C,4 C,2 | C,4 C,2 | %14
w: le- ve~un bel ma-|tin, ma- ti-|ne- ta per la|pra- *|ta;|En- con-|tré le|
w: tré le rui- se-|ñor que can-|ta- ba so la|ra- *|ma.|"Rui- se-|ñor, le|
w: ñor, le rui- se-|ñor, fac- te-|me~a- ques- ta~em- ba-|xa- *|ta.|Y dí-|ga- lo~a|
 C,4 C,2 | !breath!E,6 | B,,4 E,2 | D,4 D,2 | D,4 E,2 | B,,4 E,2 | F,2 B,,2 B,,2 | E,6 |] %22
w: rui- se-|ñor|que can-|ta- ba|so la|ra- ma.|Din- di- rin-|dín.|
w: rui- se-|ñor,|fác- te-|me~a- ques-|ta~em- ba-|xa- ta."|Din- di- rin-|dín|
w: mon a-|mi,|que ju|ya só|ma- ri-|ta- ta."|Din- di- rin-|dín.|

